small/extra/status/standard/nm-signal-100-secure.svg

<?xml version="1.0" encoding="UTF-8" standalone="no"?>
<svg
   xmlns:dc="http://purl.org/dc/elements/1.1/"
   xmlns:cc="http://creativecommons.org/ns#"
   xmlns:rdf="http://www.w3.org/1999/02/22-rdf-syntax-ns#"
   xmlns:svg="http://www.w3.org/2000/svg"
   xmlns="http://www.w3.org/2000/svg"
   xmlns:xlink="http://www.w3.org/1999/xlink"
   id="svg2"
   viewBox="0 0 512 512"
   height="100%"
   width="100%"
   version="1.1">
  <metadata
     id="metadata106">
    <rdf:RDF>
      <cc:Work
         rdf:about="">
        <dc:format>image/svg+xml</dc:format>
        <dc:type
           rdf:resource="http://purl.org/dc/dcmitype/StillImage" />
        <dc:title />
      </cc:Work>
    </rdf:RDF>
  </metadata>
  <defs
     id="defs104">
    <filter
       id="filter3174"
       color-interpolation-filters="sRGB">
      <feGaussianBlur
         id="feGaussianBlur3176"
         stdDeviation="1.71" />
    </filter>
    <linearGradient
       id="ButtonShadow"
       y2="7.0165"
       gradientUnits="userSpaceOnUse"
       x2="45.448"
       gradientTransform="scale(1.0059,0.99417)"
       y1="92.54"
       x1="45.448">
      <stop
         id="stop3750-1"
         offset="0" />
      <stop
         id="stop3752-6"
         style="stop-opacity:.58824"
         offset="1" />
    </linearGradient>
    <filter
       id="filter3174-2"
       color-interpolation-filters="sRGB">
      <feGaussianBlur
         id="feGaussianBlur3176-6"
         stdDeviation="1.71" />
    </filter>
    <linearGradient
       y2="7.0165"
       x2="45.448"
       y1="92.54"
       x1="45.448"
       gradientTransform="scale(1.0059,0.99417)"
       gradientUnits="userSpaceOnUse"
       id="linearGradient62873"
       xlink:href="#ButtonShadow" />
  </defs>
  <g
     id="layer2"
     style="display:none"
     transform="matrix(6.7274189,0,0,6.7274189,-1328.8681,-712.41656)">
    <rect
       id="rect3745"
       style="opacity:0.9;fill:url(#ButtonShadow);filter:url(#filter3174)"
       rx="6"
       ry="6"
       height="85"
       width="86"
       y="7"
       x="5" />
  </g>
  <g
     id="layer2-1"
     style="display:none"
     transform="matrix(6.7274189,0,0,6.7274189,-1522.6492,-780.80988)">
    <rect
       id="rect3745-0"
       style="opacity:0.9;fill:url(#linearGradient62873);filter:url(#filter3174-2)"
       rx="6"
       ry="6"
       height="85"
       width="86"
       y="7"
       x="5" />
  </g>
  <path
     d="m 25.99998,0 c -14.39735,0 -26,11.60265 -26,26 l 0,460 c 0,14.39735 11.60265,26 26,26 l 460,0 c 14.39735,0 26,-11.60265 26,-26 l 0,-460 c 0,-14.39735 -11.60265,-26 -26,-26 l -460,0 z"
     id="rect2986"
     style="fill:#cd1d31;fill-opacity:1;stroke:none" />
  <path
     id="path3280"
     d="m 256.00003,77.837 c -76.2987,0 -152.5993,33.10187 -215,83.95117 182.57505,222.34303 71.328,86.68689 160.625,195.84375 l 18.98633,18.98633 c -2.72333,5.37616 -4.26758,11.45021 -4.26758,17.88867 0,10.95029 4.43874,20.86452 11.61523,28.04101 l 89.45117,89.45118 168.58985,0 c 14.39735,0 26,-11.60265 26,-26 l 0,-283.21094 -41,-41 C 408.59638,110.93887 332.29879,77.837 256.00003,77.837 Z"
     style="color:#000000;visibility:visible;opacity:0.25;fill:#000000;fill-opacity:1;fill-rule:evenodd;stroke:none;stroke-width:1px;marker:none" />
  <path
     id="path3595"
     d="m 430.09373,307.4375 c -20.7232,0 -41.6875,13.84886 -41.6875,34.84375 l 0,38.1875 -15.375,0 0,85.3125 115.5,0 0,-85.3125 -15.84375,0 0,-39.25 c 0,-15.77736 -16.31645,-33.78125 -42.59375,-33.78125 z m -0.3125,19.125 c 11.158,-0.0583 23.3125,7.72348 23.3125,19.59375 l 0,34.3125 -45.75,0 0.0312,-0.0312 0,-34.125 c 0,-12.87404 12.80755,-19.69979 22.40625,-19.75 z"
     style="fill:#ffffff;fill-rule:evenodd" />
  <path
     style="color:#000000;display:inline;overflow:visible;visibility:visible;fill:#ffffff;fill-opacity:1;fill-rule:evenodd;stroke:none;stroke-width:1px;marker:none;enable-background:accumulate"
     d="m 255.99998,77.83672 c -76.2987,0 -152.5993,33.10226 -215,83.95156 182.57505,222.34303 71.328,86.68689 160.625,195.84375 11.81604,-17.40062 31.75703,-28.8125 54.375,-28.8125 22.79417,0 42.87612,11.58918 54.65625,29.21875 92.06344,-111.36697 -22.9375,27.2428 160.34375,-196.25 -62.40365,-50.8493 -138.70124,-83.95156 -215,-83.95156 z m 0,277.01406 c -21.9006,0 -39.65625,17.75567 -39.65625,39.65625 0,21.90058 17.75565,39.65625 39.65625,39.65625 21.9006,0 39.65625,-17.75567 39.65625,-39.65625 0,-21.90058 -17.75565,-39.65625 -39.65625,-39.65625 z"
     id="path3189" />
</svg>

<?xml version="1.0" encoding="UTF-8" standalone="no"?>
<!-- Created with Inkscape (http://www.inkscape.org/) -->

<svg
   xmlns:dc="http://purl.org/dc/elements/1.1/"
   xmlns:cc="http://creativecommons.org/ns#"
   xmlns:rdf="http://www.w3.org/1999/02/22-rdf-syntax-ns#"
   xmlns:svg="http://www.w3.org/2000/svg"
   xmlns="http://www.w3.org/2000/svg"
   xmlns:sodipodi="http://sodipodi.sourceforge.net/DTD/sodipodi-0.dtd"
   xmlns:inkscape="http://www.inkscape.org/namespaces/inkscape"
   version="1.1"
   width="100%"
   height="100%"
   viewBox="0 0 512 512"
   id="svg2"
   inkscape:version="0.48.5 r10040"
   sodipodi:docname="nm-signal-100-secure.svg">
  <sodipodi:namedview
     pagecolor="#ffffff"
     bordercolor="#666666"
     borderopacity="1"
     objecttolerance="10"
     gridtolerance="10"
     guidetolerance="10"
     inkscape:pageopacity="0"
     inkscape:pageshadow="2"
     inkscape:window-width="1378"
     inkscape:window-height="741"
     id="namedview78"
     showgrid="false"
     inkscape:zoom="0.23046875"
     inkscape:cx="-363.42638"
     inkscape:cy="232.04011"
     inkscape:window-x="59"
     inkscape:window-y="0"
     inkscape:window-maximized="0"
     inkscape:current-layer="svg2" />
  <metadata
     id="metadata10">
    <rdf:RDF>
      <cc:Work
         rdf:about="">
        <dc:format>image/svg+xml</dc:format>
        <dc:type
           rdf:resource="http://purl.org/dc/dcmitype/StillImage" />
        <dc:title></dc:title>
      </cc:Work>
    </rdf:RDF>
  </metadata>
  <defs
     id="defs8">
    <clipPath
       id="clipPath3433">
      <path
         style="fill:#cd1d31;fill-opacity:1;stroke:none"
         id="path3435"
         inkscape:connector-curvature="0"
         d="M 26,0 C 11.602648,0 0,11.602648 0,26 l 0,460 c 0,14.39735 11.602648,26 26,26 l 460,0 c 14.39735,0 26,-11.60265 26,-26 L 512,26 C 512,11.602648 500.39735,0 486,0 L 26,0 z" />
    </clipPath>
    <clipPath
       clipPathUnits="userSpaceOnUse"
       id="clipPath3423">
      <path
         d="M 26,0 C 11.602648,0 0,11.602648 0,26 l 0,460 c 0,14.39735 11.602648,26 26,26 l 460,0 c 14.39735,0 26,-11.60265 26,-26 L 512,26 C 512,11.602648 500.39735,0 486,0 L 26,0 z"
         inkscape:connector-curvature="0"
         id="path3425"
         style="fill:#ef6a47;fill-opacity:1;stroke:none" />
    </clipPath>
    <clipPath
       id="clipPath3433-1">
      <path
         style="fill:#cd1d31;fill-opacity:1;stroke:none"
         id="path3435-1"
         inkscape:connector-curvature="0"
         d="M 26,0 C 11.602648,0 0,11.602648 0,26 l 0,460 c 0,14.39735 11.602648,26 26,26 l 460,0 c 14.39735,0 26,-11.60265 26,-26 L 512,26 C 512,11.602648 500.39735,0 486,0 L 26,0 z" />
    </clipPath>
  </defs>
  <path
     style="fill:#cd1d31;fill-opacity:1;stroke:none"
     id="rect2986"
     inkscape:connector-curvature="0"
     d="M 26,0 C 11.602648,0 0,11.602648 0,26 l 0,460 c 0,14.39735 11.602648,26 26,26 l 460,0 c 14.39735,0 26,-11.60265 26,-26 L 512,26 C 512,11.602648 500.39735,0 486,0 L 26,0 z" />
  <g
     style="color:#000000;fill:#000000;fill-opacity:1;fill-rule:evenodd;stroke:none;stroke-width:1px;marker:none;visibility:visible;display:inline;overflow:visible;enable-background:accumulate;opacity:0.25"
     id="g3278"
     clip-path="url(#clipPath3423)">
    <path
       inkscape:connector-curvature="0"
       d="m 256,77.836722 c -76.2987,0 -152.5993,33.102258 -215,83.951558 l 388.90873,388.90873 c 62.4007,-50.8493 138.7013,-83.95156 215,-83.95156 z"
       id="path3280"
       style="fill:#000000" />
    <path
       inkscape:connector-curvature="0"
       d="m 41,161.78828 c 182.57505,222.34303 71.328,86.68689 160.625,195.84375 l 388.90873,388.90873 c -89.297,-109.15686 21.95005,26.49928 -160.625,-195.84375 z"
       id="path3282"
       style="fill:#000000" />
    <path
       inkscape:connector-curvature="0"
       d="m 201.625,357.63203 c 11.81604,-17.40062 31.75703,-28.8125 54.375,-28.8125 l 388.90873,388.90873 c -22.61797,0 -42.55896,11.41188 -54.375,28.8125 z"
       id="path3284"
       style="fill:#000000" />
    <path
       inkscape:connector-curvature="0"
       d="m 256,328.81953 c 18.14454,0 34.57051,7.3434 46.45855,19.23145 l 388.90873,388.90873 c -11.88804,-11.88805 -28.31401,-19.23145 -46.45855,-19.23145 z"
       id="path3286"
       style="fill:#000000" />
    <path
       inkscape:connector-curvature="0"
       d="m 302.45855,348.05098 c 3.04637,3.04637 5.79475,6.39116 8.1977,9.9873 l 388.90873,388.90873 c -2.40295,-3.59614 -5.15133,-6.94094 -8.1977,-9.9873 z"
       id="path3288"
       style="fill:#000000" />
    <path
       inkscape:connector-curvature="0"
       d="M 310.65625,358.03828 C 402.71969,246.67131 287.71875,385.28108 471,161.78828 l 388.90873,388.90873 c -183.28125,223.4928 -68.28031,84.88303 -160.34375,196.25 z"
       id="path3290"
       style="fill:#000000" />
    <path
       inkscape:connector-curvature="0"
       d="M 471,161.78828 C 408.59635,110.93898 332.29876,77.836722 256,77.836722 L 644.90873,466.74545 c 76.29876,0 152.59635,33.10226 215,83.95156 z"
       id="path3292"
       style="fill:#000000" />
    <path
       inkscape:connector-curvature="0"
       d="m 256,354.85078 c -21.9006,0 -39.65625,17.75567 -39.65625,39.65625 l 388.90873,388.90873 c 0,-21.90058 17.75565,-39.65625 39.65625,-39.65625 z"
       id="path3294"
       style="fill:#000000" />
    <path
       inkscape:connector-curvature="0"
       d="m 216.34375,394.50703 c 0,10.95029 4.43891,20.86436 11.6154,28.04085 l 388.90873,388.90873 c -7.17649,-7.17649 -11.6154,-17.09056 -11.6154,-28.04085 z"
       id="path3296"
       style="fill:#000000" />
    <path
       inkscape:connector-curvature="0"
       d="m 227.95915,422.54788 c 7.17649,7.17648 17.09055,11.6154 28.04085,11.6154 l 388.90873,388.90873 c -10.9503,0 -20.86436,-4.43892 -28.04085,-11.6154 z"
       id="path3298"
       style="fill:#000000" />
    <path
       inkscape:connector-curvature="0"
       d="m 256,434.16328 c 21.9006,0 39.65625,-17.75567 39.65625,-39.65625 l 388.90873,388.90873 c 0,21.90058 -17.75565,39.65625 -39.65625,39.65625 z"
       id="path3300"
       style="fill:#000000" />
    <path
       inkscape:connector-curvature="0"
       d="m 295.65625,394.50703 c 0,-10.95029 -4.43891,-20.86436 -11.6154,-28.04085 l 388.90872,388.90873 c 7.1765,7.17649 11.61541,17.09056 11.61541,28.04085 z"
       id="path3302"
       style="fill:#000000" />
    <path
       inkscape:connector-curvature="0"
       d="M 284.04085,366.46618 C 276.86436,359.2897 266.9503,354.85078 256,354.85078 l 388.90873,388.90873 c 10.9503,0 20.86436,4.43892 28.04084,11.6154 z"
       id="path3304"
       style="fill:#000000" />
  </g>
  <path
     style="fill:#ffffff;fill-rule:evenodd"
     d="M 430.09375 307.4375 C 409.37055 307.4375 388.40625 321.28636 388.40625 342.28125 L 388.40625 380.46875 L 373.03125 380.46875 L 373.03125 465.78125 L 488.53125 465.78125 L 488.53125 380.46875 L 472.6875 380.46875 L 472.6875 341.21875 C 472.6875 325.44139 456.37105 307.4375 430.09375 307.4375 z M 429.78125 326.5625 C 440.93925 326.5042 453.09375 334.28598 453.09375 346.15625 L 453.09375 380.46875 L 407.34375 380.46875 L 407.375 380.4375 L 407.375 346.3125 C 407.375 333.43846 420.18255 326.61271 429.78125 326.5625 z "
     id="path3595" />
  <text
     style="font-size:129.22999573px;line-height:125%;letter-spacing:0;word-spacing:0;font-family:Gentium Book Basic"
     id="text20"
     y="2.5963202"
     x="-704.51978">
    <tspan
       id="tspan22"
       y="2.5963202"
       x="-704.51978" />
  </text>
  <text
     style="font-size:46.95375824px;text-anchor:middle;font-family:Arial"
     id="text24"
     transform="scale(4.0128205,0.24920128)"
     y="-338.72934"
     x="21.513594" />
  <text
     style="font-size:129.22999573px;line-height:125%;letter-spacing:0;word-spacing:0;font-family:Gentium Book Basic"
     id="text26"
     y="-77.403679"
     x="-123.24976">
    <tspan
       id="tspan28"
       y="-77.403679"
       x="-123.24976" />
  </text>
  <text
     style="font-size:46.95375824px;text-anchor:middle;font-family:Arial"
     id="text30"
     transform="scale(4.0128205,0.24920128)"
     y="-659.76752"
     x="166.36287" />
  <text
     style="font-size:129.22999573px;line-height:125%;letter-spacing:0;word-spacing:0;font-family:Gentium Book Basic"
     id="text32"
     y="-258.66367"
     x="-1194.8298">
    <tspan
       id="tspan34"
       y="-258.66367"
       x="-1194.8298" />
  </text>
  <text
     style="font-size:46.95375824px;text-anchor:middle;font-family:Arial"
     id="text36"
     transform="scale(4.0128205,0.24920128)"
     y="-1387.1139"
     x="-100.67577" />
  <text
     style="font-size:129.22999573px;line-height:125%;letter-spacing:0;word-spacing:0;font-family:Gentium Book Basic"
     id="text38"
     y="-475.13367"
     x="-96.779793">
    <tspan
       id="tspan40"
       y="-475.13367"
       x="-96.779793" />
  </text>
  <text
     style="font-size:46.95375824px;text-anchor:middle;font-family:Arial"
     id="text42"
     transform="scale(4.0128205,0.24920128)"
     y="-2255.7896"
     x="172.96284" />
  <text
     style="font-size:129.22999573px;line-height:125%;letter-spacing:0;word-spacing:0;font-family:Gentium Book Basic"
     id="text44"
     y="-555.13367"
     x="484.49023">
    <tspan
       id="tspan46"
       y="-555.13367"
       x="484.49023" />
  </text>
  <text
     style="font-size:46.95375824px;text-anchor:middle;font-family:Arial"
     id="text48"
     transform="scale(4.0128205,0.24920128)"
     y="-2576.8179"
     x="317.81207" />
  <text
     style="font-size:129.22999573px;line-height:125%;letter-spacing:0;word-spacing:0;font-family:Gentium Book Basic"
     id="text50"
     y="-1027.5337"
     x="95.370232">
    <tspan
       id="tspan52"
       y="-1027.5337"
       x="95.370232" />
  </text>
  <text
     style="font-size:46.95375824px;text-anchor:middle;font-family:Arial"
     id="text54"
     transform="scale(4.0128205,0.24920128)"
     y="-4472.4683"
     x="220.84254" />
  <text
     style="font-size:129.22999573px;line-height:125%;letter-spacing:0;word-spacing:0;font-family:Gentium Book Basic"
     id="text56"
     y="-1107.5437"
     x="676.63025">
    <tspan
       id="tspan58"
       y="-1107.5437"
       x="676.63025" />
  </text>
  <text
     style="font-size:46.95375824px;text-anchor:middle;font-family:Arial"
     id="text60"
     transform="scale(4.0128205,0.24920128)"
     y="-4793.5063"
     x="365.69183" />
  <text
     style="font-size:208.33000183px;line-height:125%;letter-spacing:0;word-spacing:0;font-family:Gentium Book Basic"
     id="text62"
     y="307.17642"
     x="-1156.1698">
    <tspan
       id="tspan64"
       y="307.17642"
       x="-1156.1698" />
  </text>
  <text
     style="font-size:129.22999573px;line-height:125%;letter-spacing:0;word-spacing:0;font-family:Gentium Book Basic"
     id="text20-8"
     y="2.5963202"
     x="-704.51978">
    <tspan
       id="tspan22-7"
       y="2.5963202"
       x="-704.51978" />
  </text>
  <text
     style="font-size:46.95375824px;text-anchor:middle;font-family:Arial"
     id="text24-0"
     transform="scale(4.0128205,0.24920128)"
     y="-338.72934"
     x="21.513594" />
  <text
     style="font-size:129.22999573px;line-height:125%;letter-spacing:0;word-spacing:0;font-family:Gentium Book Basic"
     id="text26-0"
     y="-77.403679"
     x="-123.24976">
    <tspan
       id="tspan28-3"
       y="-77.403679"
       x="-123.24976" />
  </text>
  <text
     style="font-size:46.95375824px;text-anchor:middle;font-family:Arial"
     id="text30-7"
     transform="scale(4.0128205,0.24920128)"
     y="-659.76752"
     x="166.36287" />
  <text
     style="font-size:129.22999573px;line-height:125%;letter-spacing:0;word-spacing:0;font-family:Gentium Book Basic"
     id="text32-2"
     y="-258.66367"
     x="-1194.8298">
    <tspan
       id="tspan34-8"
       y="-258.66367"
       x="-1194.8298" />
  </text>
  <text
     style="font-size:46.95375824px;text-anchor:middle;font-family:Arial"
     id="text36-2"
     transform="scale(4.0128205,0.24920128)"
     y="-1387.1139"
     x="-100.67577" />
  <text
     style="font-size:129.22999573px;line-height:125%;letter-spacing:0;word-spacing:0;font-family:Gentium Book Basic"
     id="text38-7"
     y="-475.13367"
     x="-96.779793">
    <tspan
       id="tspan40-2"
       y="-475.13367"
       x="-96.779793" />
  </text>
  <text
     style="font-size:46.95375824px;text-anchor:middle;font-family:Arial"
     id="text42-3"
     transform="scale(4.0128205,0.24920128)"
     y="-2255.7896"
     x="172.96284" />
  <text
     style="font-size:129.22999573px;line-height:125%;letter-spacing:0;word-spacing:0;font-family:Gentium Book Basic"
     id="text44-6"
     y="-555.13367"
     x="484.49023">
    <tspan
       id="tspan46-7"
       y="-555.13367"
       x="484.49023" />
  </text>
  <text
     style="font-size:46.95375824px;text-anchor:middle;font-family:Arial"
     id="text48-1"
     transform="scale(4.0128205,0.24920128)"
     y="-2576.8179"
     x="317.81207" />
  <text
     style="font-size:129.22999573px;line-height:125%;letter-spacing:0;word-spacing:0;font-family:Gentium Book Basic"
     id="text50-4"
     y="-1027.5337"
     x="95.370232">
    <tspan
       id="tspan52-6"
       y="-1027.5337"
       x="95.370232" />
  </text>
  <text
     style="font-size:46.95375824px;text-anchor:middle;font-family:Arial"
     id="text54-2"
     transform="scale(4.0128205,0.24920128)"
     y="-4472.4683"
     x="220.84254" />
  <text
     style="font-size:129.22999573px;line-height:125%;letter-spacing:0;word-spacing:0;font-family:Gentium Book Basic"
     id="text56-1"
     y="-1107.5437"
     x="676.63025">
    <tspan
       id="tspan58-7"
       y="-1107.5437"
       x="676.63025" />
  </text>
  <text
     style="font-size:46.95375824px;text-anchor:middle;font-family:Arial"
     id="text60-6"
     transform="scale(4.0128205,0.24920128)"
     y="-4793.5063"
     x="365.69183" />
  <text
     style="font-size:208.33000183px;line-height:125%;letter-spacing:0;word-spacing:0;font-family:Gentium Book Basic"
     id="text62-5"
     y="307.17642"
     x="-1156.1698">
    <tspan
       id="tspan64-9"
       y="307.17642"
       x="-1156.1698" />
  </text>
  <path
     id="path3189"
     d="m 256,77.836722 c -76.2987,0 -152.5993,33.102258 -215,83.951558 182.57505,222.34303 71.328,86.68689 160.625,195.84375 11.81604,-17.40062 31.75703,-28.8125 54.375,-28.8125 22.79417,0 42.87612,11.58918 54.65625,29.21875 C 402.71969,246.67131 287.71875,385.28108 471,161.78828 408.59635,110.93898 332.29876,77.836722 256,77.836722 z m 0,277.014058 c -21.9006,0 -39.65625,17.75567 -39.65625,39.65625 0,21.90058 17.75565,39.65625 39.65625,39.65625 21.9006,0 39.65625,-17.75567 39.65625,-39.65625 0,-21.90058 -17.75565,-39.65625 -39.65625,-39.65625 z"
     style="color:#000000;fill:#ffffff;fill-opacity:1;fill-rule:evenodd;stroke:none;stroke-width:1px;marker:none;visibility:visible;display:inline;overflow:visible;enable-background:accumulate"
     inkscape:connector-curvature="0"
     sodipodi:nodetypes="sccsccssssss" />
  <text
     sodipodi:linespacing="125%"
     x="-667.51251"
     y="843.15662"
     id="text20-3"
     style="font-size:129.22999573px;line-height:125%;letter-spacing:0;word-spacing:0;font-family:Gentium Book Basic">
    <tspan
       x="-667.51251"
       y="843.15662"
       id="tspan22-4" />
  </text>
  <text
     x="30.735878"
     y="3034.2771"
     transform="scale(4.0128205,0.24920128)"
     id="text24-9"
     style="font-size:46.95375824px;text-anchor:middle;font-family:Arial" />
  <text
     sodipodi:linespacing="125%"
     x="-86.242462"
     y="763.15662"
     id="text26-7"
     style="font-size:129.22999573px;line-height:125%;letter-spacing:0;word-spacing:0;font-family:Gentium Book Basic">
    <tspan
       x="-86.242462"
       y="763.15662"
       id="tspan28-1" />
  </text>
  <text
     x="175.58514"
     y="2713.2488"
     transform="scale(4.0128205,0.24920128)"
     id="text30-8"
     style="font-size:46.95375824px;text-anchor:middle;font-family:Arial" />
  <text
     sodipodi:linespacing="125%"
     x="-1157.8225"
     y="581.89563"
     id="text32-1"
     style="font-size:129.22999573px;line-height:125%;letter-spacing:0;word-spacing:0;font-family:Gentium Book Basic">
    <tspan
       x="-1157.8225"
       y="581.89563"
       id="tspan34-7" />
  </text>
  <text
     x="-91.453499"
     y="1985.8923"
     transform="scale(4.0128205,0.24920128)"
     id="text36-0"
     style="font-size:46.95375824px;text-anchor:middle;font-family:Arial" />
  <text
     sodipodi:linespacing="125%"
     x="-59.772495"
     y="365.42661"
     id="text38-9"
     style="font-size:129.22999573px;line-height:125%;letter-spacing:0;word-spacing:0;font-family:Gentium Book Basic">
    <tspan
       x="-59.772495"
       y="365.42661"
       id="tspan40-0" />
  </text>
  <text
     x="182.18509"
     y="1117.2268"
     transform="scale(4.0128205,0.24920128)"
     id="text42-0"
     style="font-size:46.95375824px;text-anchor:middle;font-family:Arial" />
  <text
     sodipodi:linespacing="125%"
     x="521.4975"
     y="285.4166"
     id="text44-3"
     style="font-size:129.22999573px;line-height:125%;letter-spacing:0;word-spacing:0;font-family:Gentium Book Basic">
    <tspan
       x="521.4975"
       y="285.4166"
       id="tspan46-4" />
  </text>
  <text
     x="327.03439"
     y="796.18854"
     transform="scale(4.0128205,0.24920128)"
     id="text48-5"
     style="font-size:46.95375824px;text-anchor:middle;font-family:Arial" />
  <text
     sodipodi:linespacing="125%"
     x="132.37753"
     y="-186.98341"
     id="text50-0"
     style="font-size:129.22999573px;line-height:125%;letter-spacing:0;word-spacing:0;font-family:Gentium Book Basic">
    <tspan
       x="132.37753"
       y="-186.98341"
       id="tspan52-7" />
  </text>
  <text
     x="230.06485"
     y="-1099.4618"
     transform="scale(4.0128205,0.24920128)"
     id="text54-5"
     style="font-size:46.95375824px;text-anchor:middle;font-family:Arial" />
  <text
     sodipodi:linespacing="125%"
     x="713.63751"
     y="-266.98343"
     id="text56-2"
     style="font-size:129.22999573px;line-height:125%;letter-spacing:0;word-spacing:0;font-family:Gentium Book Basic">
    <tspan
       x="713.63751"
       y="-266.98343"
       id="tspan58-0" />
  </text>
  <text
     x="374.91415"
     y="-1420.4902"
     transform="scale(4.0128205,0.24920128)"
     id="text60-1"
     style="font-size:46.95375824px;text-anchor:middle;font-family:Arial" />
  <g
     id="g62"
     style="font-size:208.33000183px;line-height:125%;letter-spacing:0;word-spacing:0;font-family:Gentium Book Basic"
     transform="translate(-1397.1525,611.79661)">
    <text
       x="277.98999"
       y="535.94"
       id="text64">
      <tspan
         x="277.98999"
         y="535.94"
         id="tspan66" />
    </text>
    <text
       x="-860.84003"
       y="11.553"
       id="text68">
      <tspan
         x="-860.84003"
         y="11.553"
         id="tspan70" />
    </text>
    <text
       x="-3219.6699"
       y="289.67001"
       id="text72">
      <tspan
         x="-3219.6699"
         y="289.67001"
         id="tspan74" />
    </text>
    <text
       x="-2931.46"
       y="62.380001"
       id="text76">
      <tspan
         x="-2931.46"
         y="62.380001"
         id="tspan78" />
    </text>
    <text
       x="1263.14"
       y="-194.52"
       id="text80">
      <tspan
         x="1263.14"
         y="-194.52"
         id="tspan82" />
    </text>
    <text
       x="-864.78998"
       y="-49.48"
       id="text84">
      <tspan
         x="-864.78998"
         y="-49.48"
         id="tspan86" />
    </text>
    <text
       x="-3223.6201"
       y="228.64"
       id="text88">
      <tspan
         x="-3223.6201"
         y="228.64"
         id="tspan90" />
    </text>
    <text
       x="-2935.4099"
       y="1.35"
       id="text92">
      <tspan
         x="-2935.4099"
         y="1.35"
         id="tspan94" />
    </text>
  </g>
</svg>
